round/svg/phone_forwarded.svg

<svg xmlns="http://www.w3.org/2000/svg" width="24" height="24"><path fill="none" d="M0 0h24v24H0V0z"/><g><path d="M22.65 5.65l-3.79-3.79a.501.501 0 0 0-.86.35V4h-3.5c-.28 0-.5.22-.5.5v3c0 .28.22.5.5.5H18v1.79c0 .45.54.67.85.35l3.79-3.79c.2-.19.2-.51.01-.7zM19.23 15.26l-2.54-.29a1.99 1.99 0 0 0-1.64.57l-1.84 1.84a15.045 15.045 0 0 1-6.59-6.59l1.85-1.85c.43-.43.64-1.03.57-1.64l-.29-2.52a2.001 2.001 0 0 0-1.99-1.77H5.03c-1.13 0-2.07.94-2 2.07.53 8.54 7.36 15.36 15.89 15.89 1.13.07 2.07-.87 2.07-2v-1.73c.01-1.01-.75-1.86-1.76-1.98z"/></g></svg>

<?xml version="1.0" encoding="utf-8"?>
<!-- Generator: Adobe Illustrator 19.1.0, SVG Export Plug-In . SVG Version: 6.00 Build 0)  -->
<svg version="1.1" xmlns="http://www.w3.org/2000/svg" xmlns:xlink="http://www.w3.org/1999/xlink" x="0px" y="0px" width="24px"
	 height="24px" viewBox="0 0 24 24" enable-background="new 0 0 24 24" xml:space="preserve">
<g id="Bounding_Boxes">
	<g id="ui_x5F_spec_x5F_header_copy_2">
	</g>
	<path fill="none" d="M0,0h24v24H0V0z"/>
</g>
<g id="Rounded_1_">
	<g>
		<path d="M22.65,5.65l-3.79-3.79C18.54,1.54,18,1.76,18,2.21V4h-3.5C14.22,4,14,4.22,14,4.5v3C14,7.78,14.22,8,14.5,8H18v1.79
			c0,0.45,0.54,0.67,0.85,0.35l3.79-3.79C22.84,6.16,22.84,5.84,22.65,5.65z"/>
		<path d="M19.23,15.26l-2.54-0.29c-0.61-0.07-1.21,0.14-1.64,0.57l-1.84,1.84c-2.83-1.44-5.15-3.75-6.59-6.59l1.85-1.85
			C8.9,8.51,9.11,7.91,9.04,7.3L8.75,4.78C8.63,3.77,7.78,3.01,6.76,3.01H5.03c-1.13,0-2.07,0.94-2,2.07
			c0.53,8.54,7.36,15.36,15.89,15.89c1.13,0.07,2.07-0.87,2.07-2v-1.73C21,16.23,20.24,15.38,19.23,15.26z"/>
	</g>
</g>
</svg>
